;FLAVOR:Marlin
;TIME:91
;Filament used: 0.0184463m
;Layer height: 0.12
;MINX:138.659
;MINY:134.005
;MINZ:0.12
;MAXX:161.341
;MAXY:165.995
;MAXZ:1.92
;Generated with Cura_SteamEngine 4.9.1
M140 S65
M105
M190 S65
M104 S220
M105
M109 S220
M82 ;absolute extrusion mode
M201 X500.00 Y500.00 Z100.00 E5000.00 ;Setup machine max acceleration
M203 X500.00 Y500.00 Z10.00 E50.00 ;Setup machine max feedrate
M204 P500.00 R1000.00 T500.00 ;Setup Print/Retract/Travel acceleration
M205 X8.00 Y8.00 Z0.40 E5.00 ;Setup Jerk
M220 S100 ;Reset Feedrate
M221 S100 ;Reset Flowrate

G28 ;Home
;G29 initiates a bed probe to generate a new mesh
M420 S1; Use mesh data already stored in EEPROM
G92 E0 ;Reset Extruder
G1 Z2.0 F3000 ;Move Z Axis up
G1 X10.1 Y20 Z0.28 F5000.0 ;Move to start position
G1 X10.1 Y200.0 Z0.28 F1500.0 E15 ;Draw the first line
G1 X10.4 Y200.0 Z0.28 F5000.0 ;Move to side a little
G1 X10.4 Y20 Z0.28 F1500.0 E30 ;Draw the second line
G92 E0 ;Reset Extruder
G1 Z2.0 F3000 ;Move Z Axis up
G92 E0
G92 E0
G1 F2700 E-5
;LAYER_COUNT:16
;LAYER:0
M107
G0 F6000 X141.851 Y137.269 Z0.12
;TYPE:SKIRT
G1 F2700 E0
G1 F1200 X142.539 Y136.632 E0.01871
G1 X143.279 Y136.055 E0.03744
G1 X144.065 Y135.544 E0.05615
G1 X144.891 Y135.101 E0.07485
G1 X145.753 Y134.73 E0.09358
G1 X146.643 Y134.434 E0.1123
G1 X147.555 Y134.215 E0.13101
G1 X148.482 Y134.074 E0.14973
G1 X149.37 Y134.014 E0.16749
G1 X149.592 Y134.008 E0.17192
G1 X150.038 Y134.005 E0.18082
G1 X150.481 Y134.011 E0.18966
G1 X151.417 Y134.064 E0.20837
G1 X152.346 Y134.196 E0.22709
G1 X153.26 Y134.407 E0.24581
G1 X154.152 Y134.695 E0.26452
G1 X155.017 Y135.058 E0.28324
G1 X155.848 Y135.493 E0.30196
G1 X156.639 Y135.997 E0.32068
G1 X157.383 Y136.567 E0.33938
G1 X158.077 Y137.199 E0.35811
G1 X158.714 Y137.887 E0.37682
G1 X159.29 Y138.627 E0.39554
G1 X159.802 Y139.413 E0.41426
G1 X160.244 Y140.24 E0.43297
G1 X160.614 Y141.102 E0.45169
G1 X160.91 Y141.992 E0.47041
G1 X161.128 Y142.904 E0.48912
G1 X161.269 Y143.831 E0.50783
G1 X161.328 Y144.696 E0.52513
G1 X161.337 Y145.011 E0.53142
G1 X161.341 Y145.324 E0.53767
G1 X161.341 Y154.383 E0.71845
G1 X161.332 Y155.124 E0.73324
G1 X161.281 Y156.06 E0.75195
G1 X161.15 Y156.989 E0.77067
G1 X160.94 Y157.903 E0.78938
G1 X160.654 Y158.796 E0.8081
G1 X160.292 Y159.661 E0.82681
G1 X159.858 Y160.493 E0.84554
G1 X159.354 Y161.284 E0.86425
G1 X158.786 Y162.03 E0.88296
G1 X158.155 Y162.724 E0.90168
G1 X157.468 Y163.362 E0.92039
G1 X156.729 Y163.939 E0.9391
G1 X155.943 Y164.452 E0.95783
G1 X155.117 Y164.895 E0.97654
G1 X154.256 Y165.267 E0.99526
G1 X153.366 Y165.564 E1.01398
G1 X152.454 Y165.784 E1.0327
G1 X151.527 Y165.925 E1.05141
G1 X150.63 Y165.986 E1.06936
G1 X150.408 Y165.992 E1.07379
G1 X149.987 Y165.995 E1.08219
G1 X149.544 Y165.99 E1.09103
G1 X148.607 Y165.94 E1.10976
G1 X147.679 Y165.81 E1.12846
G1 X146.764 Y165.601 E1.14719
G1 X145.871 Y165.315 E1.1659
G1 X145.005 Y164.954 E1.18462
G1 X144.174 Y164.521 E1.20332
G1 X143.382 Y164.018 E1.22204
G1 X142.636 Y163.45 E1.24076
G1 X141.941 Y162.82 E1.25948
G1 X141.302 Y162.133 E1.2782
G1 X140.724 Y161.395 E1.29691
G1 X140.211 Y160.609 E1.31564
G1 X139.767 Y159.783 E1.33435
G1 X139.395 Y158.923 E1.35305
G1 X139.097 Y158.033 E1.37178
G1 X138.876 Y157.122 E1.39049
G1 X138.734 Y156.195 E1.4092
G1 X138.671 Y155.264 E1.42782
G1 X138.662 Y154.902 E1.43505
G1 X138.659 Y154.63 E1.44048
G1 X138.659 Y145.56 E1.62148
G1 X138.668 Y144.867 E1.63531
G1 X138.72 Y143.931 E1.65402
G1 X138.852 Y143.002 E1.67274
G1 X139.062 Y142.088 E1.69146
G1 X139.35 Y141.195 E1.71018
G1 X139.712 Y140.33 E1.7289
G1 X140.147 Y139.499 E1.74761
G1 X140.651 Y138.709 E1.76632
G1 X141.22 Y137.963 E1.78504
G1 X141.851 Y137.269 E1.80376
G0 F6000 X142.243 Y137.444
G1 F1200 X142.928 Y136.828 E1.82214
G1 X143.663 Y136.274 E1.84051
G1 X144.444 Y135.786 E1.85889
G1 X145.264 Y135.368 E1.87725
G1 X146.117 Y135.022 E1.89562
G1 X146.997 Y134.752 E1.91399
G1 X147.898 Y134.559 E1.93238
G1 X148.811 Y134.445 E1.95074
G1 X149.381 Y134.414 E1.96213
G1 X149.603 Y134.408 E1.96657
G1 X150.033 Y134.405 E1.97515
G1 X150.476 Y134.411 E1.98399
G1 X151.395 Y134.463 E2.00236
G1 X152.306 Y134.595 E2.02073
G1 X153.202 Y134.806 E2.0391
G1 X154.077 Y135.093 E2.05747
G1 X154.923 Y135.456 E2.07585
G1 X155.735 Y135.89 E2.09422
G1 X156.506 Y136.393 E2.11259
G1 X157.23 Y136.962 E2.13097
G1 X157.902 Y137.591 E2.14934
G1 X158.518 Y138.275 E2.16771
G1 X159.071 Y139.011 E2.18608
G1 X159.559 Y139.792 E2.20445
G1 X159.977 Y140.612 E2.22282
G1 X160.322 Y141.466 E2.2412
G1 X160.592 Y142.346 E2.25957
G1 X160.784 Y143.246 E2.27794
G1 X160.898 Y144.16 E2.29632
G1 X160.928 Y144.707 E2.30725
G1 X160.937 Y145.022 E2.31354
G1 X160.941 Y145.324 E2.31957
G1 X160.941 Y154.378 E2.50025
G1 X160.932 Y155.119 E2.51504
G1 X160.881 Y156.038 E2.53341
G1 X160.75 Y156.949 E2.55177
G1 X160.541 Y157.846 E2.57015
G1 X160.255 Y158.721 E2.58852
G1 X159.894 Y159.568 E2.6069
G1 X159.46 Y160.38 E2.62527
G1 X158.958 Y161.152 E2.64365
G1 X158.391 Y161.877 E2.66201
G1 X157.763 Y162.55 E2.68038
G1 X157.079 Y163.166 E2.69875
G1 X156.344 Y163.721 E2.71713
G1 X155.564 Y164.209 E2.73549
G1 X154.744 Y164.629 E2.75388
G1 X153.891 Y164.975 E2.77225
G1 X153.011 Y165.246 E2.79062
G1 X152.111 Y165.44 E2.809
G1 X151.198 Y165.555 E2.82736
G1 X150.619 Y165.586 E2.83893
G1 X150.397 Y165.592 E2.84336
G1 X149.991 Y165.595 E2.85147
G1 X149.548 Y165.59 E2.86031
G1 X148.629 Y165.54 E2.87868
G1 X147.718 Y165.41 E2.89704
G1 X146.821 Y165.201 E2.91542
G1 X145.946 Y164.916 E2.93378
G1 X145.099 Y164.556 E2.95215
G1 X144.286 Y164.123 E2.97053
G1 X143.514 Y163.621 E2.98891
G1 X142.788 Y163.055 E3.00728
G1 X142.114 Y162.427 E3.02566
G1 X141.497 Y161.744 E3.04403
G1 X140.942 Y161.01 E3.0624
G1 X140.453 Y160.23 E3.08077
G1 X140.033 Y159.41 E3.09915
G1 X139.686 Y158.558 E3.11751
G1 X139.414 Y157.678 E3.13589
G1 X139.22 Y156.778 E3.15427
G1 X139.104 Y155.865 E3.17263
G1 X139.071 Y155.254 E3.18484
G1 X139.062 Y154.892 E3.19207
G1 X139.059 Y154.63 E3.1973
G1 X139.059 Y145.565 E3.3782
G1 X139.068 Y144.872 E3.39203
G1 X139.12 Y143.953 E3.4104
G1 X139.251 Y143.042 E3.42877
G1 X139.461 Y142.146 E3.44713
G1 X139.748 Y141.271 E3.46551
G1 X140.11 Y140.424 E3.48389
G1 X140.544 Y139.612 E3.50226
G1 X141.047 Y138.841 E3.52064
G1 X141.615 Y138.116 E3.53901
G1 X142.243 Y137.444 E3.55737
G0 F6000 X142.635 Y137.622
G1 F1200 X143.316 Y137.028 E3.5754
G1 X144.047 Y136.498 E3.59342
G1 X144.822 Y136.034 E3.61145
G1 X145.635 Y135.641 E3.62947
G1 X146.479 Y135.321 E3.64748
G1 X147.349 Y135.077 E3.66551
G1 X148.236 Y134.911 E3.68352
G1 X149.391 Y134.814 E3.70665
G1 X149.613 Y134.808 E3.71108
G1 X150.027 Y134.805 E3.71935
G1 X150.47 Y134.811 E3.72819
G1 X151.372 Y134.863 E3.74622
G1 X152.265 Y134.995 E3.76423
G1 X153.143 Y135.205 E3.78225
G1 X154 Y135.492 E3.80028
G1 X154.827 Y135.854 E3.8183
G1 X155.619 Y136.287 E3.83631
G1 X156.37 Y136.789 E3.85434
G1 X157.074 Y137.356 E3.87238
G1 X157.724 Y137.982 E3.89039
G1 X158.317 Y138.663 E3.90841
G1 X158.847 Y139.395 E3.92644
G1 X159.31 Y140.17 E3.94446
G1 X159.703 Y140.983 E3.96248
G1 X160.023 Y141.828 E3.98051
G1 X160.266 Y142.697 E3.99852
G1 X160.432 Y143.585 E4.01654
G1 X160.528 Y144.719 E4.03926
G1 X160.537 Y145.034 E4.04554
G1 X160.541 Y145.324 E4.05133
G1 X160.541 Y154.373 E4.23191
G1 X160.532 Y155.114 E4.2467
G1 X160.481 Y156.016 E4.26473
G1 X160.351 Y156.909 E4.28274
G1 X160.142 Y157.788 E4.30077
G1 X159.856 Y158.644 E4.31878
G1 X159.495 Y159.472 E4.33681
G1 X159.063 Y160.265 E4.35483
G1 X158.562 Y161.017 E4.37286
G1 X157.997 Y161.721 E4.39088
G1 X157.371 Y162.373 E4.40891
G1 X156.691 Y162.966 E4.42692
G1 X155.96 Y163.497 E4.44495
G1 X155.186 Y163.962 E4.46297
G1 X154.373 Y164.356 E4.481
G1 X153.529 Y164.676 E4.49901
G1 X152.66 Y164.921 E4.51703
G1 X151.772 Y165.088 E4.53506
G1 X150.609 Y165.186 E4.55835
G1 X150.387 Y165.192 E4.56278
G1 X149.996 Y165.195 E4.57059
G1 X149.553 Y165.19 E4.57943
G1 X148.651 Y165.14 E4.59745
G1 X147.757 Y165.01 E4.61548
G1 X146.879 Y164.802 E4.63349
G1 X146.022 Y164.517 E4.65151
G1 X145.193 Y164.157 E4.66955
G1 X144.4 Y163.725 E4.68757
G1 X143.648 Y163.225 E4.70559
G1 X142.944 Y162.661 E4.72359
G1 X142.291 Y162.036 E4.74163
G1 X141.697 Y161.356 E4.75965
G1 X141.166 Y160.626 E4.77766
G1 X140.7 Y159.851 E4.79571
G1 X140.306 Y159.039 E4.81372
G1 X139.984 Y158.195 E4.83175
G1 X139.739 Y157.326 E4.84977
G1 X139.571 Y156.439 E4.86778
G1 X139.471 Y155.245 E4.89169
G1 X139.462 Y154.883 E4.89892
G1 X139.459 Y154.63 E4.90397
G1 X139.459 Y145.571 E5.08475
G1 X139.468 Y144.878 E5.09858
G1 X139.52 Y143.976 E5.11661
G1 X139.651 Y143.082 E5.13464
G1 X139.861 Y142.204 E5.15266
G1 X140.147 Y141.348 E5.17067
G1 X140.508 Y140.52 E5.1887
G1 X140.942 Y139.727 E5.20674
G1 X141.443 Y138.976 E5.22475
G1 X142.009 Y138.273 E5.24276
G1 X142.635 Y137.622 E5.26079
G1 F2700 E0.26079
;MESH:pulley_rod.stl
G0 F6000 X149.246 Y144.589
G0 X149.972 Y145.314
G0 X150.009 Y154.629
G0 X149.859 Y154.8
;TYPE:WALL-OUTER
G1 F2700 E5.26079
G1 F1200 X149.858 Y145.2 E5.45236
G1 X150.141 Y145.2 E5.45801
G1 X150.142 Y154.8 E5.64959
G1 X149.859 Y154.8 E5.65524
;MESH:NONMESH
G0 F300 X149.859 Y154.8 Z0.24
G0 F6000 X149.628 Y154.8
;TIME_ELAPSED:19.786773
;LAYER:1
M106 S85
;TYPE:WALL-OUTER
;MESH:pulley_rod.stl
G1 F600 X149.627 Y145.2 E5.84682
G1 X150.372 Y145.2 E5.86168
G1 X150.373 Y154.8 E6.05326
G1 X149.628 Y154.8 E6.06813
G0 F7500 X150 Y154.338
;TYPE:SKIN
G1 F600 X150 Y154.055 E6.07393
G1 X149.998 Y147.268 E6.21297
G1 X149.998 Y145.571 E6.24773
G1 X149.857 Y145.429 E6.25183
G0 F7500 X149.913 Y145.4
G0 X150.172 Y154.423
G0 X150.197 Y154.424
G1 F600 X149.997 Y154.624 E6.25465
G0 F7500 X150.128 Y154.301
;MESH:NONMESH
G0 F300 X150.128 Y154.301 Z0.36
G0 F7500 X149.887 Y154.4
;TIME_ELAPSED:23.245506
;LAYER:2
M106 S170
;TYPE:WALL-INNER
;MESH:pulley_rod.stl
G1 F600 X149.886 Y145.6 E6.43027
G1 X150.113 Y145.6 E6.4348
G1 X150.114 Y154.4 E6.53472
G1 X149.887 Y154.4 E6.53925
G0 F9000 X149.487 Y154.8
;TYPE:WALL-OUTER
G1 F600 X149.486 Y145.2 E6.73083
G1 X150.513 Y145.2 E6.75132
G1 X150.514 Y154.8 E6.9429
G1 X149.487 Y154.8 E6.96339
G0 F9000 X149.969 Y154.2
;MESH:NONMESH
G0 F300 X149.969 Y154.2 Z0.48
G0 F9000 X149.786 Y154.4
;TIME_ELAPSED:27.397242
;LAYER:3
M106 S255
;TYPE:WALL-INNER
;MESH:pulley_rod.stl
G1 F600 X149.785 Y145.799 E7.13504
G1 X149.785 Y145.6 E7.13901
G1 X149.984 Y145.6 E7.14158
G1 X150.214 Y145.6 E7.14617
G1 X150.215 Y154.201 E7.31781
G1 X150.215 Y154.4 E7.32178
G1 X150.016 Y154.4 E7.32435
G1 X149.786 Y154.4 E7.32894
G0 F9000 X149.386 Y154.8
;TYPE:WALL-OUTER
G1 F600 X149.385 Y145.2 E7.52052
G1 X150.614 Y145.2 E7.54504
G1 X150.615 Y154.8 E7.73662
G1 X149.386 Y154.8 E7.76115
G0 F9000 X149.714 Y154.472
;MESH:NONMESH
G0 F300 X149.714 Y154.472 Z0.6
G0 F9000 X149.712 Y154.4
;TIME_ELAPSED:31.592620
;LAYER:4
;TYPE:WALL-INNER
;MESH:pulley_rod.stl
G1 F600 X149.711 Y145.799 E7.93279
G1 X149.711 Y145.6 E7.93676
G1 X149.91 Y145.6 E7.93933
G1 X150.288 Y145.6 E7.94687
G1 X150.289 Y154.201 E8.11852
G1 X150.289 Y154.4 E8.12249
G1 X150.09 Y154.4 E8.12506
G1 X149.712 Y154.4 E8.1326
G0 F9000 X149.312 Y154.8
;TYPE:WALL-OUTER
G1 F600 X149.311 Y145.2 E8.32418
G1 X150.688 Y145.2 E8.35166
G1 X150.689 Y154.8 E8.54324
G1 X149.312 Y154.8 E8.57072
G0 F9000 X149.933 Y154.176
;TYPE:SKIN
G1 F600 X150 Y153.959 E8.57333
G1 X149.998 Y147.17 E8.65145
G1 X149.998 Y146.038 E8.66448
G1 X150.065 Y145.822 E8.66708
G0 F9000 X150.088 Y145.869
;MESH:NONMESH
G0 F300 X150.088 Y145.869 Z0.72
G0 F9000 X149.66 Y154.4
;TIME_ELAPSED:36.962671
;LAYER:5
;TYPE:WALL-INNER
;MESH:pulley_rod.stl
G1 F600 X149.659 Y145.799 E8.83872
G1 X149.659 Y145.6 E8.84269
G1 X149.858 Y145.6 E8.84526
G1 X150.34 Y145.6 E8.85488
G1 X150.341 Y154.201 E9.02652
G1 X150.341 Y154.4 E9.03049
G1 X150.142 Y154.4 E9.03306
G1 X149.66 Y154.4 E9.04268
G0 F9000 X149.26 Y154.8
;TYPE:WALL-OUTER
G1 F600 X149.259 Y145.2 E9.23426
G1 X150.74 Y145.2 E9.26382
G1 X150.741 Y154.8 E9.45539
G1 X149.26 Y154.8 E9.48495
G0 F9000 X149.999 Y154.056
;TYPE:SKIN
G1 F600 X149.999 Y153.773 E9.48985
G1 X149.999 Y146.136 E9.62212
G1 X149.956 Y145.896 E9.62635
G0 F9000 X149.834 Y146.018
G0 X150.164 Y154.174
G1 F600 X150.114 Y154.224 E9.62705
G0 F9000 X150.114 Y154.2
;MESH:NONMESH
G0 F300 X150.114 Y154.2 Z0.84
G0 F9000 X149.625 Y154.4
;TIME_ELAPSED:42.421814
;LAYER:6
;TYPE:WALL-INNER
;MESH:pulley_rod.stl
G1 F600 X149.624 Y145.799 E9.79869
G1 X149.624 Y145.6 E9.80267
G1 X149.823 Y145.6 E9.80524
G1 X150.375 Y145.6 E9.81625
G1 X150.376 Y154.201 E9.98789
G1 X150.376 Y154.4 E9.99186
G1 X150.177 Y154.4 E9.99443
G1 X149.625 Y154.4 E10.00545
G0 F9000 X149.225 Y154.8
;TYPE:WALL-OUTER
G1 F600 X149.224 Y145.2 E10.19703
G1 X150.775 Y145.2 E10.22798
G1 X150.776 Y154.8 E10.41956
G1 X149.225 Y154.8 E10.45051
G0 F9000 X149.89 Y154.133
;TYPE:SKIN
G1 F600 X149.999 Y153.959 E10.45471
G1 X149.998 Y146.038 E10.61666
G1 X150.108 Y145.865 E10.62085
G0 F9000 X150.017 Y145.8
;MESH:NONMESH
G0 F300 X150.017 Y145.8 Z0.96
G0 F9000 X150.395 Y154.4
;TIME_ELAPSED:47.866850
;LAYER:7
;TYPE:WALL-INNER
;MESH:pulley_rod.stl
G1 F600 X150.196 Y154.4 E10.62482
G1 X149.605 Y154.4 E10.63662
G1 X149.605 Y145.6 E10.81223
G1 X150.394 Y145.6 E10.82798
G1 X150.395 Y154.201 E10.99962
G1 X150.395 Y154.4 E11.00219
G0 F9000 X150.795 Y154.8
;TYPE:WALL-OUTER
G1 F600 X149.205 Y154.8 E11.03392
G1 X149.205 Y145.2 E11.2255
G1 X150.794 Y145.2 E11.25721
G1 X150.795 Y154.8 E11.44879
G0 F9000 X150.166 Y154.171
;TYPE:SKIN
G1 F600 X150.025 Y154.03 E11.45322
G1 X149.999 Y151.793 E11.50296
G1 X149.998 Y146.136 E11.62874
G1 X149.928 Y145.924 E11.63371
G0 F9000 X150.078 Y145.8
;MESH:NONMESH
G0 F300 X150.078 Y145.8 Z1.08
G0 F9000 X149.602 Y154.4
;TIME_ELAPSED:53.330951
;LAYER:8
;TYPE:WALL-INNER
;MESH:pulley_rod.stl
G1 F600 X149.602 Y145.6 E11.80932
G1 X150.399 Y145.6 E11.82522
G1 X150.399 Y154.4 E12.00084
G1 X149.602 Y154.4 E12.01674
G0 F9000 X149.202 Y154.8
;TYPE:WALL-OUTER
G1 F600 X149.202 Y145.2 E12.20832
G1 X150.799 Y145.2 E12.24019
G1 X150.799 Y154.8 E12.43177
G1 X149.202 Y154.8 E12.46364
G0 F9000 X149.981 Y154.224
;TYPE:SKIN
G1 F600 X149.775 Y154.018 E12.46655
G0 F9000 X149.999 Y153.959
G1 F600 X149.999 Y153.676 E12.47298
G1 X149.999 Y146.039 E12.64673
G1 X150.12 Y145.877 E12.65133
G0 F9000 X150.017 Y145.8
;MESH:NONMESH
G0 F300 X150.017 Y145.8 Z1.2
G0 F9000 X150.389 Y154.4
;TIME_ELAPSED:58.844712
;LAYER:9
;TYPE:WALL-INNER
;MESH:pulley_rod.stl
G1 F600 X149.611 Y154.4 E12.66685
G1 X149.611 Y145.6 E12.84247
G1 X150.389 Y145.6 E12.85799
G1 X150.389 Y154.4 E13.03361
G0 F9000 X150.789 Y154.8
;TYPE:WALL-OUTER
G1 F600 X149.211 Y154.8 E13.0651
G1 X149.211 Y145.2 E13.25668
G1 X150.789 Y145.2 E13.28817
G1 X150.789 Y154.8 E13.47975
G0 F9000 X150.163 Y154.174
;TYPE:SKIN
G1 F600 X150.021 Y154.033 E13.48406
G1 X149.999 Y151.227 E13.5445
G1 X149.999 Y146.136 E13.65417
G1 X149.932 Y145.921 E13.65902
G0 F9000 X150.078 Y145.8
;MESH:NONMESH
G0 F300 X150.078 Y145.8 Z1.32
G0 F9000 X150.363 Y154.4
;TIME_ELAPSED:64.304039
;LAYER:10
;TYPE:WALL-INNER
;MESH:pulley_rod.stl
G1 F600 X149.636 Y154.4 E13.67353
G1 X149.636 Y145.6 E13.84914
G1 X150.363 Y145.6 E13.86365
G1 X150.363 Y154.4 E14.03926
G0 F9000 X150.763 Y154.8
;TYPE:WALL-OUTER
G1 F600 X149.236 Y154.8 E14.06974
G1 X149.236 Y145.2 E14.26132
G1 X150.763 Y145.2 E14.29179
G1 X150.763 Y154.8 E14.48337
G0 F9000 X149.998 Y153.958
;TYPE:SKIN
G1 F600 X149.998 Y153.675 E14.48898
G1 X149.998 Y146.038 E14.64047
G1 X150.102 Y145.86 E14.64456
G0 F9000 X150.188 Y145.945
G0 X149.809 Y154.052
G1 F600 X149.981 Y154.224 E14.64699
G0 F9000 X149.981 Y154.2
;MESH:NONMESH
G0 F300 X149.981 Y154.2 Z1.44
G0 F9000 X150.323 Y154.4
;TIME_ELAPSED:69.787951
;LAYER:11
;TYPE:WALL-INNER
;MESH:pulley_rod.stl
G1 F600 X149.677 Y154.4 E14.65988
G1 X149.677 Y145.6 E14.83549
G1 X150.323 Y145.6 E14.84839
G1 X150.323 Y154.4 E15.024
G0 F9000 X150.723 Y154.8
;TYPE:WALL-OUTER
G1 F600 X149.277 Y154.8 E15.05286
G1 X149.277 Y145.2 E15.24443
G1 X150.723 Y145.2 E15.27329
G1 X150.723 Y154.8 E15.46487
G0 F9000 X150.13 Y154.207
;TYPE:SKIN
G1 F600 X149.999 Y154.056 E15.46785
G1 X149.999 Y146.136 E15.58589
G1 X149.964 Y145.888 E15.58962
G0 F9000 X150.078 Y145.8
;MESH:NONMESH
G0 F300 X150.078 Y145.8 Z1.56
G0 F9000 X150.264 Y154.4
